packages/ui-icons/svg/Line/progress.svg

<svg viewBox="0 0 1920 1920" version="1.1" xmlns="http://www.w3.org/2000/svg">
    <path d="M320.0064,960.031999 C320.0064,1312.89788 607.057882,1600.0064 960.032001,1600.0064 C1133.79895,1600.0064 1294.12537,1530.24919 1411.97008,1411.93392 L1411.97008,1411.93392 L1200.0416,1200.0224 L1680.0608,1200.0224 L1680.0608,1680.0032 L1525.0146,1524.8894 C1377.64871,1672.88348 1177.24069,1760 960.032001,1760 C518.814353,1760 160,1401.13435 160,960.031999 L160,960.031999 Z M959.967999,160 C1401.18565,160 1760,518.865645 1760,959.968001 L1760,959.968001 L1599.9936,959.968001 C1599.9936,607.102116 1312.94212,319.9936 959.967999,319.9936 C786.201048,319.9936 625.874635,389.75081 508.029921,508.066077 L508.029921,508.066077 L719.958398,719.977601 L239.939198,719.977601 L239.939198,239.9968 L394.985399,395.030599 C542.351294,247.116515 742.75931,160 959.967999,160 Z" stroke="none" stroke-width="1" fill-rule="evenodd"/>
</svg>

<svg viewBox="0 0 1920 1920" xmlns="http://www.w3.org/2000/svg">
    <path d="M320.006 960.032c0 352.866 287.052 639.974 640.026 639.974 173.767 0 334.093-69.757 451.938-188.072l-211.928-211.912h480.019v479.981l-155.046-155.114C1377.649 1672.883 1177.24 1760 960.032 1760 518.814 1760 160 1401.134 160 960.032ZM959.968 160C1401.186 160 1760 518.866 1760 959.968h-160.006c0-352.866-287.052-639.974-640.026-639.974-173.767 0-334.093 69.757-451.938 188.072l211.928 211.912H239.94V239.997L394.985 395.03C542.351 247.117 742.76 160 959.968 160Z" fill-rule="evenodd"/>
</svg>
